app/images/icons/teleg.svg

<svg width="20" height="20" viewBox="0 0 20 20" fill="none" xmlns="http://www.w3.org/2000/svg">
<path d="M17.2208 3.09759L2.44583 8.79509C1.4375 9.20009 1.44333 9.76259 2.26083 10.0134L6.05416 11.1968L14.8308 5.65926C15.2458 5.40676 15.625 5.54259 15.3133 5.81926L8.2025 12.2368H8.20083L8.2025 12.2376L7.94083 16.1476C8.32416 16.1476 8.49333 15.9718 8.70833 15.7643L10.5508 13.9726L14.3833 16.8034C15.09 17.1926 15.5975 16.9926 15.7733 16.1493L18.2892 4.29259C18.5467 3.26009 17.895 2.79259 17.2208 3.09759V3.09759Z" fill="white"/>
</svg>

<svg width="20" height="20" fill="none" xmlns="http://www.w3.org/2000/svg"><path d="M17.22 3.098L2.447 8.795c-1.009.405-1.003.968-.185 1.218l3.793 1.184 8.777-5.538c.415-.252.794-.116.482.16l-7.11 6.418H8.2h.002l-.262 3.91c.383 0 .552-.175.767-.383l1.843-1.791 3.832 2.83c.707.39 1.215.19 1.39-.654L18.29 4.293c.258-1.033-.394-1.5-1.068-1.195z" fill="#fff"/></svg>
